X:190
T:Sporting Paddy                                                                                    
M:C|                                                                                                
L:1/8                                                                                               
K:D                                                                                                 
EAAA GABG|EAAA GEDG|EAAA GABd|efge dBAG|                                                            
EAAA GABG| EAAA GEDG|EAAA GABd|1 efge d2 (3BAG :|2 efge d2 ef||                                     
geee gede|geee a2 ba| geee gedg|efge d2 ef|                                                         
g2 fg eBBB|geee a2 ga|bgaf gedg|efge dBAG :|
